!! 00048] TT[KA
!! NN
!!!OTL: Xiao shanyang (2)
!!!ARE: Guizhou
!! Ethnic Group: Dong, Zhuang, Yao, Miao u. ander Miderheiten des Suedwesten
!! II, 164
!!!SCT: C0218B
!!!YEM: Copyright 1995, estate of Helmut Schaffrath.
**kern
*ICvox
*Ivox
!! Mixed meters:  2/4; 3/4
*M3/4
*k[]
*C:
{16c
16d
8e
8d
4c
16d
16c
=1
*M2/4
8e
8d
8c
8c}
=2
{8.c
16d
8.e
16g
=3
*M3/4
8d
8c
8c
8d
8e
8d
=4
*M2/4
4d
4g
=5
4.e
8d
=6
8d
4.c}
=7
*M3/4
{8.e
16c
4c
8e
8c
=8
*M2/4
8c
4e
8d
=9
*M3/4
4d
2c}
=10
*M2/4
{4d
4e
=11
8e
8d
4e
=12
4d
4c
=13
2c
=14
2c}
=15
{8c
8d
4e
=16
8d
[4.g
=17
2g]
=18
2e
=19
8e
4.d
=20
4c}
{8d
8e
=21
*M3/4
4c
16d
[8.e
4e]
=22
*M2/4
4d
8d
8c
=23
8c
4.A
=24
4G
4A}
==
!!!AGN: Shange? Tong sheng da Shange; Kinderlied
!! Hier gelten gr. u. kl. Sekunde als Konsonanz!
!!    2 Lieder = 2 Dokumente. Das 1. Lied steht im vorigen ? Dokument unter
!!    gleicher Signatur. Vereinzelt Verzierungen und Glissandi.
!!    Angegeben ist die Oberstimme.
!!!ONB: ESAC (Essen Associative Code) Database: CHINA_091B
!!!AMT: irregular
!!!AIN: vox
!!!EED: Helmut Schaffrath
!!!EEV: 1.0
*-
!!!ONB: Tied note syntax fixed by Craig Sapp, 2004/05/03/
